X: 427
T: The House on the Hill
N:"Spirited" "collected by F.O'Neill"
N:Irish title: an tea.c air an .cnui.c
B:O'Neill's 427
Z:Transcribed by henrik.norbeck@mailbox.swipnet.se
M:6/8
L:1/8
K:Gm
D | D2 G G2 G | G2 ^F D2 D | (DB).B Bcd | c3 cBA |
B2 B BAG | A2 F DE^F | G2 F D2 D | D3- D2 ||
D | d2 d dcB | c2 d f2 d | c2 c cBA | B3 z2 B/c/ |
d2 d dcA | B2 G ABc | d2 G G2 A | G3 z2 (G/B/) |
A2 D D2 =E | F=EF D2 D | D2 G B2 c | d3 z2 B/c/ |
d2 d dcB | c2 B ABc | d2 G AG^F | G3- G2 ||


